Origami/64x64/apps/ppsspp.svg

<svg width="64" height="64" version="1" xmlns="http://www.w3.org/2000/svg">
 <rect x="4" y="18" width="56" height="28" rx="8.4" ry="8.4" style="fill:#4f4f4f"/>
 <rect x="20" y="22" width="25" height="20" style="fill:#0093cd"/>
 <path d="m21.5 38.199956v-5.699956h6v-6h-6.5" style="fill:none;stroke:#ffffff"/>
 <path d="m36 26.5h-3.5v11h-3.5" style="fill:none;stroke:#ffffff"/>
 <g transform="matrix(1.9999857,0,0,1.9999857,2.880143e-5,1.0002717)" style="opacity:.2">
  <path d="m5.4 13c-0.3324 0-0.6 0.2676-0.6 0.6v1.2l-1.2-1e-6c-0.3324 0-0.6 0.2676-0.6 0.6v1.2c0 0.3324 0.2676 0.6 0.6 0.6h1.2v1.2c0 0.332 0.2676 0.6 0.6 0.6h1.2c0.3324-2e-6 0.6-0.2676 0.6-0.6v-1.2h1.2c0.3324 0 0.6-0.2676 0.6-0.6v-1.2c0-0.332-0.2676-0.6-0.6-0.6h-1.2v-1.2c0-0.332-0.2676-0.6-0.6-0.6h-1.2z"/>
  <circle transform="rotate(90)" cx="14" cy="-26" r="1"/>
  <circle transform="rotate(90)" cx="18" cy="-26" r="1"/>
  <circle transform="scale(-1)" cx="-28" cy="-16" r="1"/>
  <circle transform="scale(-1)" cx="-24" cy="-16" r="1"/>
 </g>
 <g transform="matrix(1.9999857,0,0,1.9999857,2.880143e-5,3.434e-4)" style="fill:#697e83">
  <path d="m5.4 13c-0.3324 0-0.6 0.2676-0.6 0.6v1.2l-1.2-1e-6c-0.3324 0-0.6 0.2676-0.6 0.6v1.2c0 0.3324 0.2676 0.6 0.6 0.6h1.2v1.2c0 0.332 0.2676 0.6 0.6 0.6h1.2c0.3324-2e-6 0.6-0.2676 0.6-0.6v-1.2h1.2c0.3324 0 0.6-0.2676 0.6-0.6v-1.2c0-0.332-0.2676-0.6-0.6-0.6h-1.2v-1.2c0-0.332-0.2676-0.6-0.6-0.6h-1.2z"/>
  <circle transform="rotate(90)" cx="14" cy="-26" r="1"/>
  <circle transform="rotate(90)" cx="18" cy="-26" r="1"/>
  <circle transform="scale(-1)" cx="-28" cy="-16" r="1"/>
  <circle transform="scale(-1)" cx="-24" cy="-16" r="1"/>
 </g>
 <path d="m4 37.601562v1c0 4.653966 3.7452709 8.398438 8.398438 8.398438h39.203124c4.653967 0 8.398438-3.744472 8.398438-8.398438v-1c0 4.653966-3.744471 8.398438-8.398438 8.398438h-39.203124c-4.6531671 0-8.398438-3.744471-8.398438-8.398438z" style="opacity:.2"/>
 <path d="m12.398438 18c-4.6535671 0-8.398438 3.744471-8.398438 8.398438v1c0-4.653968 3.7448709-8.398438 8.398438-8.398438h39.203124c4.653967 0 8.398438 3.74447 8.398438 8.398438v-1c0-4.653968-3.744471-8.398438-8.398438-8.398438h-39.203124z" style="fill:#ffffff;opacity:.1"/>
 <path d="m37.5 38.199956v-5.699956h6v-6h-6.5" style="fill:none;stroke:#ffffff"/>
</svg>

<svg xmlns="http://www.w3.org/2000/svg" width="64" height="64" version="1">
 <rect style="fill:#4f4f4f" width="56" height="28" x="4" y="18" rx="8.4" ry="8.4"/>
 <rect style="fill:#0093cd" width="25" height="20" x="20" y="22"/>
 <path style="fill:none;stroke:#ffffff" d="m 21.5,38.199956 0,-5.699956 6,0 0,-6 -6.5,0"/>
 <path style="fill:none;stroke:#ffffff" d="m 36,26.5 -3.5,0 0,11 -3.5,0"/>
 <g style="opacity:0.2" transform="matrix(1.9999857,0,0,1.9999857,2.880143e-5,1.0002717)">
  <path d="m 5.4,13 c -0.3324,0 -0.6,0.2676 -0.6,0.6 l 0,1.2 -1.2,-1e-6 c -0.3324,0 -0.6,0.2676 -0.6,0.6 l 0,1.2 c 0,0.3324 0.2676,0.6 0.6,0.6 l 1.2,0 0,1.2 c 0,0.332 0.2676,0.6 0.6,0.6 l 1.2,0 c 0.3324,-2e-6 0.6,-0.2676 0.6,-0.6 l 0,-1.2 1.2,0 c 0.3324,0 0.6,-0.2676 0.6,-0.6 l 0,-1.2 c 0,-0.332 -0.2676,-0.6 -0.6,-0.6 l -1.2,0 0,-1.2 c 0,-0.332 -0.2676,-0.6 -0.6,-0.6 l -1.2,0 z"/>
  <g>
   <circle cx="14" cy="-26" r="1" transform="matrix(0,1,-1,0,0,0)"/>
   <circle cx="18" cy="-26" r="1" transform="matrix(0,1,-1,0,0,0)"/>
   <circle cx="-28" cy="-16" r="1" transform="scale(-1,-1)"/>
   <circle cx="-24" cy="-16" r="1" transform="scale(-1,-1)"/>
  </g>
 </g>
 <g style="fill:#697e83" transform="matrix(1.9999857,0,0,1.9999857,2.880143e-5,3.434e-4)">
  <path d="m 5.4,13 c -0.3324,0 -0.6,0.2676 -0.6,0.6 l 0,1.2 -1.2,-1e-6 c -0.3324,0 -0.6,0.2676 -0.6,0.6 l 0,1.2 c 0,0.3324 0.2676,0.6 0.6,0.6 l 1.2,0 0,1.2 c 0,0.332 0.2676,0.6 0.6,0.6 l 1.2,0 c 0.3324,-2e-6 0.6,-0.2676 0.6,-0.6 l 0,-1.2 1.2,0 c 0.3324,0 0.6,-0.2676 0.6,-0.6 l 0,-1.2 c 0,-0.332 -0.2676,-0.6 -0.6,-0.6 l -1.2,0 0,-1.2 c 0,-0.332 -0.2676,-0.6 -0.6,-0.6 l -1.2,0 z"/>
  <g>
   <circle cx="14" cy="-26" r="1" transform="matrix(0,1,-1,0,0,0)"/>
   <circle cx="18" cy="-26" r="1" transform="matrix(0,1,-1,0,0,0)"/>
   <circle cx="-28" cy="-16" r="1" transform="scale(-1,-1)"/>
   <circle cx="-24" cy="-16" r="1" transform="scale(-1,-1)"/>
  </g>
 </g>
 <path style="opacity:0.2" d="M 4 37.601562 L 4 38.601562 C 4 43.255528 7.7452709 47 12.398438 47 L 51.601562 47 C 56.255529 47 60 43.255528 60 38.601562 L 60 37.601562 C 60 42.255528 56.255529 46 51.601562 46 L 12.398438 46 C 7.7452709 46 4 42.255529 4 37.601562 z"/>
 <path style="opacity:0.1;fill:#ffffff" d="M 12.398438 18 C 7.7448709 18 4 21.744471 4 26.398438 L 4 27.398438 C 4 22.74447 7.7448709 19 12.398438 19 L 51.601562 19 C 56.255529 19 60 22.74447 60 27.398438 L 60 26.398438 C 60 21.74447 56.255529 18 51.601562 18 L 12.398438 18 z"/>
 <path style="fill:none;stroke:#ffffff" d="m 37.5,38.199956 0,-5.699956 6,0 0,-6 -6.5,0"/>
</svg>
